symbols/web/person/materialsymbolsoutlined/person_wght100grad200_20px.svg

<svg xmlns="http://www.w3.org/2000/svg" height="20" width="20"><path d="M10 9.062q-1.188 0-1.948-.76t-.76-1.948q0-1.187.76-1.948.76-.76 1.948-.76t1.948.76q.76.761.76 1.948 0 1.188-.76 1.948T10 9.062Zm-6.271 7.376v-1.792q0-.625.333-1.115.334-.489.896-.739 1.209-.563 2.5-.865 1.292-.302 2.542-.302 1.25 0 2.552.302t2.49.865q.562.25.896.739.333.49.333 1.115v1.792Zm1.209-1.209h10.124v-.583q0-.292-.145-.49-.146-.198-.417-.281-.979-.437-2.188-.74-1.208-.302-2.312-.302-1.104 0-2.313.302-1.208.303-2.187.74-.271.104-.417.292-.145.187-.145.479ZM10 7.854q.667 0 1.083-.416.417-.417.417-1.084 0-.666-.417-1.083-.416-.417-1.083-.417t-1.083.417Q8.5 5.688 8.5 6.354q0 .667.417 1.084.416.416 1.083.416Zm0-1.5Zm0 8.875Z"/></svg>

<svg xmlns="http://www.w3.org/2000/svg" height="20" width="20"><path d="M10 9.062Q8.812 9.062 8.052 8.302Q7.292 7.542 7.292 6.354Q7.292 5.167 8.052 4.406Q8.812 3.646 10 3.646Q11.188 3.646 11.948 4.406Q12.708 5.167 12.708 6.354Q12.708 7.542 11.948 8.302Q11.188 9.062 10 9.062ZM3.729 16.438V14.646Q3.729 14.021 4.062 13.531Q4.396 13.042 4.958 12.792Q6.167 12.229 7.458 11.927Q8.75 11.625 10 11.625Q11.25 11.625 12.552 11.927Q13.854 12.229 15.042 12.792Q15.604 13.042 15.938 13.531Q16.271 14.021 16.271 14.646V16.438ZM4.938 15.229H15.062V14.646Q15.062 14.354 14.917 14.156Q14.771 13.958 14.5 13.875Q13.521 13.438 12.312 13.135Q11.104 12.833 10 12.833Q8.896 12.833 7.687 13.135Q6.479 13.438 5.5 13.875Q5.229 13.979 5.083 14.167Q4.938 14.354 4.938 14.646ZM10 7.854Q10.667 7.854 11.083 7.438Q11.5 7.021 11.5 6.354Q11.5 5.688 11.083 5.271Q10.667 4.854 10 4.854Q9.333 4.854 8.917 5.271Q8.5 5.688 8.5 6.354Q8.5 7.021 8.917 7.438Q9.333 7.854 10 7.854ZM10 6.354Q10 6.354 10 6.354Q10 6.354 10 6.354Q10 6.354 10 6.354Q10 6.354 10 6.354Q10 6.354 10 6.354Q10 6.354 10 6.354Q10 6.354 10 6.354Q10 6.354 10 6.354ZM10 15.229Q10 15.229 10 15.229Q10 15.229 10 15.229Q10 15.229 10 15.229Q10 15.229 10 15.229Q10 15.229 10 15.229Q10 15.229 10 15.229Q10 15.229 10 15.229Q10 15.229 10 15.229Z"/></svg>
